front/assets/images/icone-profil-deconnecte.svg

<svg width="16" height="16" viewBox="0 0 16 16" fill="none" xmlns="http://www.w3.org/2000/svg">
<path d="M3.33329 14.6664C3.15648 14.6664 2.98691 14.5962 2.86189 14.4712C2.73686 14.3461 2.66663 14.1766 2.66663 13.9998V1.99975C2.66663 1.82294 2.73686 1.65337 2.86189 1.52835C2.98691 1.40332 3.15648 1.33308 3.33329 1.33308H12.6666C12.8434 1.33308 13.013 1.40332 13.138 1.52835C13.2631 1.65337 13.3333 1.82294 13.3333 1.99975V3.99975H12V2.66642H3.99996V13.3331H12V11.9998H13.3333V13.9998C13.3333 14.1766 13.2631 14.3461 13.138 14.4712C13.013 14.5962 12.8434 14.6664 12.6666 14.6664H3.33329ZM12 10.6664V8.66642H7.33329V7.33308H12V5.33308L15.3333 7.99975L12 10.6664Z" fill="#000091"/>
</svg>

<svg xmlns="http://www.w3.org/2000/svg" width="16" height="16" fill="none"><path fill="#000091" d="M3.333 14.666A.667.667 0 0 1 2.667 14V2a.667.667 0 0 1 .666-.667h9.334a.667.667 0 0 1 .666.667v2H12V2.666H4v10.667h8V12h1.333v2a.667.667 0 0 1-.666.666zm8.667-4v-2H7.333V7.333H12v-2L15.333 8z"/></svg>
